src/pos-icons/roman-numeral-1.svg

<svg height="24" viewBox="0 0 24 24" width="24" xmlns="http://www.w3.org/2000/svg"><path d="m14 7v2h-1v6h1v2h-4v-2h1v-6h-1v-2z"/></svg>

<?xml version="1.0" encoding="UTF-8"?><!DOCTYPE svg PUBLIC "-//W3C//DTD SVG 1.1//EN" "http://www.w3.org/Graphics/SVG/1.1/DTD/svg11.dtd"><svg xmlns="http://www.w3.org/2000/svg" xmlns:xlink="http://www.w3.org/1999/xlink" version="1.1" id="mdi-roman-numeral-1" width="24" height="24" viewBox="0 0 24 24"><path d="M14 7V9H13V15H14V17H10V15H11V9H10V7H14Z" /></svg>
